X:1
T:Beaux of London City
C:Traditional
M:9/8
L:1/8
Q:3/8=90
K:G
|: GGG BAG d2G | G2G B2A G2D | AAA cBA e2A | GBG A2G G3 :|
ddd edc Bc2 | c2c B2A G2E | eee dcB d2G | GAB A2G G3 |]
